X:1
T: The Ragg
N:
C:
S:
A:
O:
R:
M:6/8
K:D
I:speed 150
%W: A1
% voice 1 (1 lines, 40 notes)
K:D
M:6/8
L:1/16
a2 |f4 A2 A2 d2 A2 B c d2 B2 G4 g2 f4 A2 A2 d2 A2 e6 g4 a2 |f4 A2 A2 d2 A2 B c d2 B2 G4 g2 f2 g2 a2 g2 f2 e2 d6 d4 a2 |
%W: A2
% voice 1 (1 lines, 39 notes)
f4 A2 A2 d2 A2 B c d2 B2 G4 g2 f4 A2 A2 d2 A2 e6 g4 a2 |f4 A2 A2 d2 A2 B c d2 B2 G4 g2 f2 g2 a2 g2 f2 e2 d6 d4 g2 |
%W: B1
% voice 1 (1 lines, 42 notes)
f2 g2 a2 a2 f2 d2 e2 f2 g2 g2 e2 c2 f2 g2 a2 a2 f2 d2 f6 a6 |f2 g2 a2 a2 f2 d2 e2 f2 g2 g2 e2 c2 f g a2 f2 e2 c2 A2 d6 d4 g2 |
%W: B2
% voice 1 (1 lines, 41 notes)
f2 g2 a2 a2 f2 d2 e2 f2 g2 g2 e2 c2 f2 g2 a2 a2 f2 d2 f6 a6 |f2 g2 a2 a2 f2 d2 e2 f2 g2 g2 e2 c2 f g a2 f2 e2 c2 A2 d6 d4 ||

